flaticon/army-badges/medal-13.svg

<svg xmlns="http://www.w3.org/2000/svg" width="32" height="32" viewBox="0 0 24 24">
    <path d="M 14 13.996094 L 14 13.867188 L 16.679688 11.480469 C 16.761719 11.441406 16.800781 11.320312 16.800781 11.199219 L 16.800781 0.398438 C 16.800781 0.160156 16.640625 0 16.398438 0 L 7.601562 0 C 7.359375 0 7.199219 0.160156 7.199219 0.398438 L 7.199219 11.199219 C 7.199219 11.320312 7.238281 11.441406 7.359375 11.558594 L 10 13.910156 L 10 13.996094 C 8.117188 14.777344 6.800781 16.628906 6.800781 18.800781 C 6.800781 21.679688 9.121094 24 12 24 C 14.878906 24 17.199219 21.679688 17.199219 18.800781 C 17.199219 16.628906 15.882812 14.777344 14 13.996094 Z M 16 11 L 14 12.785156 L 14 0.800781 L 16 0.800781 Z M 13.199219 0.800781 L 13.199219 13.5 L 13 13.679688 C 12.898438 13.667969 12.796875 13.65625 12.699219 13.648438 C 12.625 13.636719 12.550781 13.628906 12.472656 13.621094 C 12.457031 13.621094 12.441406 13.617188 12.421875 13.617188 C 12.402344 13.617188 12.382812 13.613281 12.367188 13.613281 C 12.335938 13.609375 12.304688 13.609375 12.273438 13.605469 C 12.261719 13.605469 12.253906 13.605469 12.246094 13.605469 C 12.210938 13.605469 12.171875 13.601562 12.136719 13.601562 C 12.089844 13.601562 12.046875 13.601562 12 13.601562 C 11.648438 13.601562 11.308594 13.632812 10.976562 13.699219 L 10.800781 13.542969 L 10.800781 0.800781 Z M 8 11.039062 L 8 0.800781 L 10 0.800781 L 10 12.828125 Z M 12 23.199219 C 9.558594 23.199219 7.601562 21.199219 7.601562 18.800781 C 7.601562 16.863281 8.875 15.191406 10.648438 14.613281 C 10.671875 14.613281 10.695312 14.609375 10.71875 14.601562 C 10.757812 14.589844 10.796875 14.578125 10.839844 14.570312 C 10.890625 14.578125 10.945312 14.578125 11 14.558594 C 11.71875 14.398438 12.359375 14.398438 13.039062 14.558594 C 13.039062 14.558594 13.0625 14.558594 13.089844 14.558594 C 13.140625 14.574219 13.191406 14.585938 13.238281 14.601562 C 13.265625 14.601562 13.292969 14.601562 13.320312 14.601562 C 15.109375 15.15625 16.398438 16.820312 16.398438 18.800781 C 16.398438 21.238281 14.441406 23.199219 12 23.199219 Z M 12 23.199219"/>
    <path d="M 15.558594 17.480469 C 15.519531 17.320312 15.359375 17.199219 15.199219 17.199219 L 13.078125 17.199219 L 12.359375 15.078125 C 12.320312 14.921875 12.160156 14.800781 12 14.800781 C 11.839844 14.800781 11.679688 14.921875 11.640625 15.078125 L 10.921875 17.199219 L 8.800781 17.199219 C 8.640625 17.199219 8.480469 17.320312 8.441406 17.480469 C 8.359375 17.640625 8.441406 17.800781 8.558594 17.921875 L 10.359375 19.359375 L 9.640625 21.480469 C 9.558594 21.640625 9.640625 21.800781 9.761719 21.921875 C 9.878906 22.039062 10.039062 22.039062 10.199219 21.960938 L 12 20.878906 L 13.800781 21.960938 C 13.839844 22 13.921875 22 14 22 C 14.082031 22 14.160156 22 14.238281 21.917969 C 14.359375 21.800781 14.398438 21.640625 14.359375 21.480469 L 13.640625 19.359375 L 15.441406 17.921875 C 15.558594 17.800781 15.601562 17.640625 15.558594 17.480469 Z M 12.960938 18.878906 C 12.839844 19 12.800781 19.160156 12.839844 19.320312 L 13.28125 20.679688 L 12.199219 20.039062 C 12.160156 20 12.078125 20 12 20 C 11.921875 20 11.839844 20.039062 11.839844 20.039062 L 10.761719 20.679688 L 11.199219 19.320312 C 11.28125 19.160156 11.199219 19 11.078125 18.878906 L 9.960938 18 L 11.199219 18 C 11.359375 18 11.519531 17.921875 11.558594 17.761719 L 12 16.480469 L 12.441406 17.71875 C 12.480469 17.878906 12.640625 18 12.800781 18 L 14.078125 18 Z M 12.960938 18.878906"/>
</svg>

<svg xmlns="http://www.w3.org/2000/svg" width="32" height="32" viewBox="0 0 24 24">
    <path d="M14 13.996v-.129l2.68-2.387c.082-.039.12-.16.12-.28V.397C16.8.16 16.64 0 16.399 0H7.602c-.243 0-.403.16-.403.398V11.2c0 .121.04.242.16.36L10 13.91v.086a5.188 5.188 0 0 0-3.2 4.805A5.19 5.19 0 0 0 12 24a5.19 5.19 0 0 0 5.2-5.2 5.188 5.188 0 0 0-3.2-4.804zM16 11l-2 1.785V.801h2zM13.2.8v12.7l-.2.18a8.753 8.753 0 0 0-.3-.032 3.994 3.994 0 0 0-.227-.027c-.016 0-.032-.004-.051-.004-.02 0-.04-.004-.055-.004-.031-.004-.062-.004-.094-.008h-.027l-.11-.003H12c-.352 0-.691.03-1.023.097l-.176-.156V.801zM8 11.04V.8h2v12.028zm4 12.16c-2.441 0-4.398-2-4.398-4.4a4.42 4.42 0 0 1 3.046-4.187.221.221 0 0 0 .07-.011c.04-.012.079-.024.122-.032.05.008.105.008.16-.011.719-.16 1.36-.16 2.04 0h.05c.05.015.101.027.148.043h.082a4.381 4.381 0 0 1 3.078 4.199A4.385 4.385 0 0 1 12 23.199zm0 0"/>
    <path d="M15.559 17.48a.383.383 0 0 0-.36-.28h-2.12l-.72-2.122a.385.385 0 0 0-.359-.277c-.16 0-.32.12-.36.277l-.718 2.121H8.8c-.16 0-.32.121-.36.281-.082.16 0 .32.118.442l1.8 1.437-.718 2.121c-.082.16 0 .32.12.442.118.117.278.117.438.039L12 20.879l1.8 1.082c.04.039.122.039.2.039.082 0 .16 0 .238-.082a.445.445 0 0 0 .121-.438l-.718-2.12 1.8-1.438c.118-.121.16-.281.118-.442zM12.96 18.88a.455.455 0 0 0-.121.441l.441 1.36-1.082-.64C12.16 20 12.08 20 12 20c-.078 0-.16.04-.16.04l-1.078.64.437-1.36c.082-.16 0-.32-.12-.441L9.96 18h1.238c.16 0 .32-.078.36-.238L12 16.48l.441 1.239c.04.16.2.281.36.281h1.277zm0 0"/>
</svg>
